X: 19092
T: Irish Hero, The
R: jig
M: 6/8
K: Dmajor
|:"D"d3 FGA|"G"Bcd efg|"D"faf "G"ege|"D"dfd "A"cBA|
"D"d3 FGA|"G"Bcd efg|"D"fed "A"cAc|"D"d3 D3:|
|:"D"a3 d'af|"G"g2 a bge|"D"f3 afd|"A"c2 d ecA|
"Bm"d3 FGA|"G"Bcd efg|"D"fed "A"cAc|"D"d3 D3:|

